X:10
T:BAG OF MEAL, THE
T:Banish Misfortune
R:jig
B:Coles pg 75.2
Z:John B. Walsh, <walsh:mat::h.ubc.ca> 5/17/02
M:6/8
L:1/8
K:D
vd/ue/|f2d cAG|A2d cAG|F2D D(ED)|F3 GED|
ABA cAG|ABA A2d|fed cAc|d3 d2:|
ue|vf2d d"4"ed| fga afd|d2 =c cdc|efg gfe|
fga agf|gfg efg|fed cAc|d3 d2:|
